static/assets/images/icons/team.svg

<svg width="256" height="256" viewBox="0 0 256 256" fill="none" xmlns="http://www.w3.org/2000/svg">
<path d="M128 50C137.283 50 146.185 53.7243 152.749 60.3537C159.312 66.983 163 75.9743 163 85.3496C163 94.7249 159.312 103.716 152.749 110.346C146.185 116.975 137.283 120.699 128 120.699C118.717 120.699 109.815 116.975 103.251 110.346C96.6875 103.716 93 94.7249 93 85.3496C93 75.9743 96.6875 66.983 103.251 60.3537C109.815 53.7243 118.717 50 128 50ZM58 75.2497C63.6 75.2497 68.8 76.7647 73.3 79.4917C71.8 93.9345 76 108.276 84.6 119.487C79.6 129.183 69.6 135.849 58 135.849C50.0435 135.849 42.4129 132.657 36.7868 126.974C31.1607 121.292 28 113.585 28 105.549C28 97.5134 31.1607 89.8065 36.7868 84.1243C42.4129 78.442 50.0435 75.2497 58 75.2497ZM198 75.2497C205.956 75.2497 213.587 78.442 219.213 84.1243C224.839 89.8065 228 97.5134 228 105.549C228 113.585 224.839 121.292 219.213 126.974C213.587 132.657 205.956 135.849 198 135.849C186.4 135.849 176.4 129.183 171.4 119.487C180.115 108.117 184.162 93.7947 182.7 79.4917C187.2 76.7647 192.4 75.2497 198 75.2497ZM63 178.773C63 157.867 92.1 140.899 128 140.899C163.9 140.899 193 157.867 193 178.773V210C193 215.523 188.523 220 183 220H73C67.4772 220 63 215.523 63 210V178.773ZM18 220C12.4772 220 8 215.523 8 210V181.298C8 167.26 26.9 155.443 52.5 152.009C46.6 158.877 43 168.371 43 178.773V210C43 215.523 38.5228 220 33 220H18ZM248 210C248 215.523 243.523 220 238 220H223C217.477 220 213 215.523 213 210V178.773C213 168.371 209.4 158.877 203.5 152.009C229.1 155.443 248 167.26 248 181.298V210Z" fill="black"/>
</svg>

<svg xmlns="http://www.w3.org/2000/svg" fill="none" viewBox="0 0 256 256"><path fill="#000" d="M128 50c9.283 0 18.185 3.724 24.749 10.354C159.312 66.983 163 75.974 163 85.35s-3.688 18.366-10.251 24.996c-6.564 6.629-15.466 10.353-24.749 10.353s-18.185-3.724-24.749-10.353C96.687 103.716 93 94.725 93 85.35c0-9.376 3.688-18.367 10.251-24.996C109.815 53.724 118.717 50 128 50M58 75.25c5.6 0 10.8 1.515 15.3 4.242-1.5 14.442 2.7 28.784 11.3 39.995-5 9.696-15 16.362-26.6 16.362a29.85 29.85 0 0 1-21.213-8.875C31.16 121.292 28 113.585 28 105.549s3.16-15.743 8.787-21.425A29.85 29.85 0 0 1 58 75.25m140 0a29.85 29.85 0 0 1 21.213 8.874c5.626 5.683 8.787 13.39 8.787 21.425s-3.161 15.743-8.787 21.425A29.85 29.85 0 0 1 198 135.849c-11.6 0-21.6-6.666-26.6-16.362 8.715-11.37 12.762-25.692 11.3-39.995 4.5-2.727 9.7-4.242 15.3-4.242M63 178.773c0-20.906 29.1-37.874 65-37.874s65 16.968 65 37.874V210c0 5.523-4.477 10-10 10H73c-5.523 0-10-4.477-10-10zM18 220c-5.523 0-10-4.477-10-10v-28.702c0-14.038 18.9-25.855 44.5-29.289-5.9 6.868-9.5 16.362-9.5 26.764V210c0 5.523-4.477 10-10 10zm230-10c0 5.523-4.477 10-10 10h-15c-5.523 0-10-4.477-10-10v-31.227c0-10.402-3.6-19.896-9.5-26.764 25.6 3.434 44.5 15.251 44.5 29.289z"/></svg>
